X: 23
T:Mount Hills. (p).1701.PLFD.456
M:4/4
L:1/4
Q:100
S:Playford,11th Ed.,1701.
O:England
Z:Chris Partington.
K:G % transposed from G
D|GdBB|A/B/A/G/FD|GdBB|dc/B/A2|!GdBB|A/B/A/G/FD|GF/-E/cB/-A/|F2G2:|!
|:F>GAB|cBAG/-F/|GEcd|B2A2|!d/e/d/c/BB|GGE>B|cB/-A/ G/-F/G/-A/|A2G2:
